assets/images/prog-fonctionnelle-js/composition.svg

<?xml version="1.0" encoding="UTF-8"?>
<svg width="155.44px" height="18.096px" version="1.1" viewBox="0 -750 8588 1e3" xmlns="http://www.w3.org/2000/svg" xmlns:xlink="http://www.w3.org/1999/xlink">
<defs>
<path id="b" d="m94 250q0 69 10 131t23 107 37 88 38 67 42 52 33 34 25 21h17q14 0 14-9 0-3-17-21t-41-53-49-86-42-138-17-193 17-192 41-139 49-86 42-53 17-21q0-9-15-9h-16l-28 24q-94 85-137 212t-43 264z"/>
<path id="e" d="m118-162q2 0 6-2t11-3 12-1q13 0 24 13t16 29q10 27 34 153t46 240 22 115v3h-47q-47 0-50 2-4 3-4 10l7 28q2 5 8 5t47 1q48 0 48 1 0 2 9 50t12 58q37 165 146 165 37-2 61-22t24-53q0-36-21-52t-42-17q-44 0-44 42 0 19 11 33t24 21l9 5q-16 6-30 6-12 0-23-10t-15-28q-7-29-16-78t-16-83-7-36q0-2 55-2 45 0 52-1t11-6q1-4-2-17t-5-16q-2-5-9-5t-54-1h-56l-23-122q-48-248-67-310-27-85-70-126-37-32-73-32-32 0-58 19t-26 54q0 37 21 54t42 17q44 0 44-42 0-19-11-33t-24-21l-9-5z"/>
<path id="g" d="m55 251q0 77 57 135t137 58 137-56 58-139q0-78-56-136t-138-58q-80 0-137 57t-58 139zm190 152q-57 0-103-42t-46-111q0-67 45-110t109-44q34 0 63 13t41 26 21 25q28 37 28 90 0 63-43 108t-115 45z"/>
<path id="d" d="m311 43q-15-13-44-28t-61-15q-63 0-101 45t-39 115q0 105 77 193t171 89q47 0 87-48l3 4q2 3 5 6t9 8 13 7 16 3q14 0 23-9t10-19q0-15-57-242t-60-232q-18-54-77-89t-135-36q-141 0-141 68 0 26 18 46t46 20q15 0 28-9t14-31q0-10-2-19t-7-14-8-10-7-8l-2-2h1q10-3 60-3 38 0 60 12 23 11 43 33t28 47q6 19 16 62 13 48 13 56zm73 285-4 11q-3 11-5 15t-6 14-10 14-13 11-18 9-22 3q-44 0-85-53-30-39-50-119t-20-116q0-79 62-79 56 0 110 70l8 10 53 210z"/>
<path id="a" d="m60 749 4 1q5 0 10 0h12l28-24q94-85 137-212t43-264q0-68-10-131t-23-107-37-88-38-67-41-51-32-33-23-19q-3-3-4-4h-12q-8 0-11 0t-5 3-3 9q1 1 11 13 155 161 155 475t-155 475q-10 12-11 13 0 8 5 11z"/>
<path id="c" d="m52 289q7 42 54 97t116 56q35 0 64-18t43-45q42 63 101 63 37 0 64-22t28-59q0-29-14-47t-27-22-23-4q-19 0-31 11t-12 29q0 46 50 63-11 13-40 13-13 0-19-2-38-16-56-66-60-221-60-258 0-28 16-40t35-12q37 0 73 33t49 81q3 10 6 11t16 2h4q15 0 15-8 0-1-2-11-16-57-62-101t-107-44q-70 0-106 63-41-62-94-62h-6q-49 0-70 26t-22 55q0 32 19 52t45 20q43 0 43-42 0-20-12-35t-23-20-13-5l-3-1q0-1 6-4t16-7 19-3q36 0 62 45 9 16 23 68t28 108 16 66q5 27 5 39 0 28-15 40t-34 12q-40 0-75-32t-49-82q-2-9-5-10t-16-2h-14q-6 6-6 11z"/>
<path id="f" d="m56 347q0 13 14 20h637q15-8 15-20 0-11-14-19l-318-1h-318q-16 5-16 20zm0-194q0 15 16 20h636q14-10 14-20 0-13-15-20h-637q-14 7-14 20z"/>
</defs>
<rect y="-750" width="8588" height="1e3" fill="#fff"/>
<g transform="matrix(1 0 0 -1 1.2331e-7 2.7435e-5)" fill="currentColor" stroke="currentColor" stroke-width="0">
<g data-mml-node="math">
<g data-mml-node="mo">
<use xlink:href="#b"/>
</g>
<g transform="translate(389)" data-mml-node="mi">
<use xlink:href="#e"/>
</g>
<g transform="translate(1161.2)" data-mml-node="mo">
<use xlink:href="#g"/>
</g>
<g transform="translate(1883.4)" data-mml-node="mi">
<use xlink:href="#d"/>
</g>
<g transform="translate(2360.4)" data-mml-node="mo">
<use xlink:href="#a"/>
</g>
<g transform="translate(2749.4)" data-mml-node="mo">
<use xlink:href="#b"/>
</g>
<g transform="translate(3138.4)" data-mml-node="mi">
<use xlink:href="#c"/>
</g>
<g transform="translate(3710.4)" data-mml-node="mo">
<use xlink:href="#a"/>
</g>
<g transform="translate(4377.2)" data-mml-node="mo">
<use xlink:href="#f"/>
</g>
<g transform="translate(5433)" data-mml-node="mi">
<use xlink:href="#e"/>
</g>
<g transform="translate(5983)" data-mml-node="mo">
<use xlink:href="#b"/>
</g>
<g transform="translate(6372)" data-mml-node="mi">
<use xlink:href="#d"/>
</g>
<g transform="translate(6849)" data-mml-node="mo">
<use xlink:href="#b"/>
</g>
<g transform="translate(7238)" data-mml-node="mi">
<use xlink:href="#c"/>
</g>
<g transform="translate(7810)" data-mml-node="mo">
<use xlink:href="#a"/>
</g>
<g transform="translate(8199)" data-mml-node="mo">
<use xlink:href="#a"/>
</g>
</g>
</g>
</svg>

<?xml version="1.0" encoding="UTF-8" standalone="no" ?>
<svg xmlns="http://www.w3.org/2000/svg" width="155.440px" height="18.096px" viewBox="0 -750 8588 1000" xmlns:xlink="http://www.w3.org/1999/xlink"><defs><path id="MJX-4-TEX-N-28" d="M94 250Q94 319 104 381T127 488T164 576T202 643T244 695T277 729T302 750H315H319Q333 750 333 741Q333 738 316 720T275 667T226 581T184 443T167 250T184 58T225 -81T274 -167T316 -220T333 -241Q333 -250 318 -250H315H302L274 -226Q180 -141 137 -14T94 250Z"></path><path id="MJX-4-TEX-I-66" d="M118 -162Q120 -162 124 -164T135 -167T147 -168Q160 -168 171 -155T187 -126Q197 -99 221 27T267 267T289 382V385H242Q195 385 192 387Q188 390 188 397L195 425Q197 430 203 430T250 431Q298 431 298 432Q298 434 307 482T319 540Q356 705 465 705Q502 703 526 683T550 630Q550 594 529 578T487 561Q443 561 443 603Q443 622 454 636T478 657L487 662Q471 668 457 668Q445 668 434 658T419 630Q412 601 403 552T387 469T380 433Q380 431 435 431Q480 431 487 430T498 424Q499 420 496 407T491 391Q489 386 482 386T428 385H372L349 263Q301 15 282 -47Q255 -132 212 -173Q175 -205 139 -205Q107 -205 81 -186T55 -132Q55 -95 76 -78T118 -61Q162 -61 162 -103Q162 -122 151 -136T127 -157L118 -162Z"></path><path id="MJX-4-TEX-N-2218" d="M55 251Q55 328 112 386T249 444T386 388T444 249Q444 171 388 113T250 55Q170 55 113 112T55 251ZM245 403Q188 403 142 361T96 250Q96 183 141 140T250 96Q284 96 313 109T354 135T375 160Q403 197 403 250Q403 313 360 358T245 403Z"></path><path id="MJX-4-TEX-I-67" d="M311 43Q296 30 267 15T206 0Q143 0 105 45T66 160Q66 265 143 353T314 442Q361 442 401 394L404 398Q406 401 409 404T418 412T431 419T447 422Q461 422 470 413T480 394Q480 379 423 152T363 -80Q345 -134 286 -169T151 -205Q10 -205 10 -137Q10 -111 28 -91T74 -71Q89 -71 102 -80T116 -111Q116 -121 114 -130T107 -144T99 -154T92 -162L90 -164H91Q101 -167 151 -167Q189 -167 211 -155Q234 -144 254 -122T282 -75Q288 -56 298 -13Q311 35 311 43ZM384 328L380 339Q377 350 375 354T369 368T359 382T346 393T328 402T306 405Q262 405 221 352Q191 313 171 233T151 117Q151 38 213 38Q269 38 323 108L331 118L384 328Z"></path><path id="MJX-4-TEX-N-29" d="M60 749L64 750Q69 750 74 750H86L114 726Q208 641 251 514T294 250Q294 182 284 119T261 12T224 -76T186 -143T145 -194T113 -227T90 -246Q87 -249 86 -250H74Q66 -250 63 -250T58 -247T55 -238Q56 -237 66 -225Q221 -64 221 250T66 725Q56 737 55 738Q55 746 60 749Z"></path><path id="MJX-4-TEX-I-78" d="M52 289Q59 331 106 386T222 442Q257 442 286 424T329 379Q371 442 430 442Q467 442 494 420T522 361Q522 332 508 314T481 292T458 288Q439 288 427 299T415 328Q415 374 465 391Q454 404 425 404Q412 404 406 402Q368 386 350 336Q290 115 290 78Q290 50 306 38T341 26Q378 26 414 59T463 140Q466 150 469 151T485 153H489Q504 153 504 145Q504 144 502 134Q486 77 440 33T333 -11Q263 -11 227 52Q186 -10 133 -10H127Q78 -10 57 16T35 71Q35 103 54 123T99 143Q142 143 142 101Q142 81 130 66T107 46T94 41L91 40Q91 39 97 36T113 29T132 26Q168 26 194 71Q203 87 217 139T245 247T261 313Q266 340 266 352Q266 380 251 392T217 404Q177 404 142 372T93 290Q91 281 88 280T72 278H58Q52 284 52 289Z"></path><path id="MJX-4-TEX-N-3D" d="M56 347Q56 360 70 367H707Q722 359 722 347Q722 336 708 328L390 327H72Q56 332 56 347ZM56 153Q56 168 72 173H708Q722 163 722 153Q722 140 707 133H70Q56 140 56 153Z"></path></defs><g stroke="currentColor" fill="currentColor" stroke-width="0" transform="matrix(1 0 0 -1 0 0)"><g data-mml-node="math"><g data-mml-node="mo"><use xlink:href="#MJX-4-TEX-N-28"></use></g><g data-mml-node="mi" transform="translate(389, 0)"><use xlink:href="#MJX-4-TEX-I-66"></use></g><g data-mml-node="mo" transform="translate(1161.2, 0)"><use xlink:href="#MJX-4-TEX-N-2218"></use></g><g data-mml-node="mi" transform="translate(1883.4, 0)"><use xlink:href="#MJX-4-TEX-I-67"></use></g><g data-mml-node="mo" transform="translate(2360.4, 0)"><use xlink:href="#MJX-4-TEX-N-29"></use></g><g data-mml-node="mo" transform="translate(2749.4, 0)"><use xlink:href="#MJX-4-TEX-N-28"></use></g><g data-mml-node="mi" transform="translate(3138.4, 0)"><use xlink:href="#MJX-4-TEX-I-78"></use></g><g data-mml-node="mo" transform="translate(3710.4, 0)"><use xlink:href="#MJX-4-TEX-N-29"></use></g><g data-mml-node="mo" transform="translate(4377.2, 0)"><use xlink:href="#MJX-4-TEX-N-3D"></use></g><g data-mml-node="mi" transform="translate(5433, 0)"><use xlink:href="#MJX-4-TEX-I-66"></use></g><g data-mml-node="mo" transform="translate(5983, 0)"><use xlink:href="#MJX-4-TEX-N-28"></use></g><g data-mml-node="mi" transform="translate(6372, 0)"><use xlink:href="#MJX-4-TEX-I-67"></use></g><g data-mml-node="mo" transform="translate(6849, 0)"><use xlink:href="#MJX-4-TEX-N-28"></use></g><g data-mml-node="mi" transform="translate(7238, 0)"><use xlink:href="#MJX-4-TEX-I-78"></use></g><g data-mml-node="mo" transform="translate(7810, 0)"><use xlink:href="#MJX-4-TEX-N-29"></use></g><g data-mml-node="mo" transform="translate(8199, 0)"><use xlink:href="#MJX-4-TEX-N-29"></use></g></g></g></svg>
